frontend/public/svg/food/egg.svg

<svg width="162" height="150" viewBox="0 0 162 150" fill="none" xmlns="http://www.w3.org/2000/svg">
<g clip-path="url(#clip0)">
<path d="M0.506583 96.7638C0.251268 82.1445 4.35274 71.8269 12.7847 63.1761C20.8144 54.939 30.412 48.8958 40.5564 43.8026C44.7836 41.7049 48.2347 38.3178 50.4113 34.1306C51.5855 31.9844 52.2864 29.5749 53.1561 27.2679C53.6306 26.0091 54.0204 24.7174 54.4326 23.4356C58.4953 10.7913 67.5355 3.91738 80.2324 1.60117C95.5986 -1.20205 109.858 6.49172 117.184 21.2429C117.455 21.735 117.692 22.2452 117.892 22.77C120.868 31.7323 127.613 36.4502 136.213 39.088C137.821 39.5816 139.419 40.1107 141.038 40.5629C151.878 43.5912 157.957 50.9375 160.425 61.691C162.384 70.2234 161.1 77.9026 155.243 84.6977C152.684 87.6663 150.512 90.9683 148.193 94.1397C144.795 98.786 143.649 104.035 143.927 109.719C144.091 113.078 144.357 116.496 143.941 119.807C142.516 131.144 133.126 145.342 116.101 147.99C104.311 149.828 92.8898 149.04 81.6369 144.942C77.1968 143.399 72.6615 142.144 68.0599 141.185C61.0984 139.629 54.2318 141.12 47.333 142.13C43.2545 142.726 38.9785 143.343 34.9637 142.761C20.6437 140.683 10.9457 132.274 5.38777 119.159C2.03258 111.247 0.46786 102.85 0.506583 96.7638ZM106.955 139.032C108.692 138.901 110.817 138.681 112.947 138.58C128.159 137.858 137.81 123.767 135.127 110.767C133.439 102.586 135.524 94.9372 140.772 88.3003C143.767 84.5152 146.762 80.7294 149.829 77.0021C151.19 75.4197 152.154 73.5366 152.643 71.5079C153.132 69.4792 153.131 67.3638 152.641 65.3355C152.197 63.2589 151.609 61.2065 150.975 59.1778C149.345 53.9645 145.765 50.6336 140.682 48.8831C137.823 47.8986 134.878 47.1563 132.027 46.1469C122.048 42.6138 114.175 36.7968 110.796 26.2062C110.585 25.5667 110.321 24.9455 110.008 24.3486C102.798 10.2302 88.7431 2.77136 72.0065 11.8452C69.4317 13.2068 67.2159 15.1593 65.5405 17.5424C63.2572 20.9933 61.457 24.7407 60.19 28.6799C57.8029 36.3546 52.9227 43.0128 46.3229 47.5999C40.0306 52.1123 33.6346 56.4869 27.4624 61.1587C19.7452 67.0002 12.9921 73.6988 10.7047 83.6055C7.71774 95.8712 9.66194 108.82 16.1195 119.668C21.5671 128.962 30.2052 133.996 41.6163 132.377C43.838 132.062 46.067 131.775 48.2736 131.372C55.0536 130.134 61.9024 129.281 68.6756 130.858C74.8754 132.302 80.9649 134.256 87.0419 136.174C93.4143 138.195 99.8582 139.45 106.955 139.035V139.032Z" fill="black"/>
<path d="M85.1245 97.0053C77.7604 96.9002 70.6739 94.1738 65.139 89.3149C55.8998 81.3989 54.6705 67.8041 62.2078 57.7167C65.3082 53.5619 69.4203 50.2699 74.1531 48.154C77.5004 46.6228 80.6266 44.7409 84.4084 44.2368C94.516 42.8953 106.568 49.0165 111.849 58.3654C116.765 67.0697 115.53 79.38 108.622 87.3564C102.75 94.1371 94.9577 96.8458 85.1245 97.0053ZM105.868 70.0107C105.903 58.9841 95.7506 52.3335 86.491 51.8504C77.314 51.3706 70.5282 56.4618 66.7608 64.964C63.5448 72.2246 66.0133 80.0868 72.6882 84.4068C79.226 88.6383 86.3151 89.3642 93.6313 87.0624C101.22 84.6753 105.911 77.9196 105.871 70.0107H105.868Z" fill="black"/>
</g>
<defs>
<clipPath id="clip0">
<rect width="161.459" height="148.332" fill="white" transform="translate(0.447266 0.713379)"/>
</clipPath>
</defs>
</svg>

<svg xmlns="http://www.w3.org/2000/svg" width="162" height="150" fill="none" viewBox="0 0 162 150"><g fill="#000" clip-path="url(#a)"><path d="M.507 96.764C.25 82.144 4.353 71.827 12.785 63.176c8.03-8.237 17.627-14.28 27.771-19.373a22.26 22.26 0 0 0 9.855-9.672c1.175-2.147 1.875-4.556 2.745-6.863.475-1.259.864-2.55 1.277-3.832C58.495 10.79 67.536 3.917 80.233 1.6c15.366-2.803 29.625 4.89 36.951 19.642q.407.739.708 1.527c2.976 8.962 9.721 13.68 18.321 16.318 1.608.494 3.206 1.023 4.825 1.475 10.84 3.028 16.919 10.374 19.387 21.128 1.959 8.532.675 16.212-5.182 23.007-2.559 2.968-4.731 6.27-7.05 9.442-3.398 4.646-4.544 9.895-4.266 15.579.164 3.359.43 6.777.014 10.088-1.425 11.337-10.815 25.535-27.84 28.183-11.79 1.838-23.211 1.05-34.464-3.048a109 109 0 0 0-13.577-3.757c-6.962-1.556-13.828-.065-20.727.945-4.078.596-8.355 1.213-12.37.631-14.32-2.078-24.017-10.487-29.575-23.602C2.033 111.247.468 102.85.507 96.764m106.448 42.268c1.737-.131 3.862-.351 5.992-.452 15.212-.722 24.863-14.813 22.18-27.813-1.688-8.181.397-15.83 5.645-22.467 2.995-3.785 5.99-7.57 9.057-11.298a13.15 13.15 0 0 0 2.812-11.666c-.444-2.077-1.032-4.13-1.666-6.158-1.63-5.213-5.21-8.544-10.293-10.295-2.859-.984-5.804-1.727-8.655-2.736-9.979-3.533-17.852-9.35-21.231-19.94a12.3 12.3 0 0 0-.788-1.858C102.798 10.23 88.743 2.77 72.007 11.845a18.44 18.44 0 0 0-6.467 5.697 45.4 45.4 0 0 0-5.35 11.138A36.1 36.1 0 0 1 46.323 47.6c-6.292 4.512-12.688 8.887-18.86 13.559-7.718 5.841-14.47 12.54-16.758 22.447a48.2 48.2 0 0 0 5.414 36.062c5.448 9.294 14.086 14.328 25.497 12.709 2.222-.315 4.451-.602 6.658-1.005 6.78-1.238 13.628-2.091 20.402-.514 6.2 1.444 12.289 3.398 18.366 5.316 6.372 2.021 12.816 3.276 19.913 2.861z"/><path d="M85.125 97.005a30.96 30.96 0 0 1-19.986-7.69c-9.24-7.916-10.468-21.51-2.931-31.598a30.4 30.4 0 0 1 11.945-9.563c3.347-1.531 6.474-3.413 10.255-3.917 10.108-1.342 22.16 4.78 27.441 14.128 4.916 8.705 3.681 21.015-3.227 28.991-5.872 6.781-13.664 9.49-23.498 9.65m20.743-26.994c.035-11.027-10.117-17.677-19.377-18.16-9.177-.48-15.963 4.61-19.73 13.113-3.216 7.26-.748 15.123 5.927 19.443 6.538 4.231 13.627 4.957 20.943 2.655 7.589-2.387 12.28-9.142 12.24-17.051z"/></g><defs><clipPath id="a"><path fill="#fff" d="M.447.713h161.46v148.332H.446z"/></clipPath></defs></svg>
